X:1
T:Vola fra gli altri
T:Simone Molinaro Genovese
T:Source : Canzonette a tre voci---Libro secondo---Venetia---R.Amadino---1600. Editor : André Vierendeels (27/11/16).
T:Notes : Original clefs : C1, C1, C4 Editorial accidentals above the staff
T:Vola fra gli altri
T:©
T:©
T:©
T:©
T:©
C:Simone Molinaro Genovese
Z:©
%%score [ 1 2 3 ]
L:1/8
Q:1/4=128
M:4/4
K:F
V:1 treble nm="Soprano 1" snm="S 1"
V:2 treble nm="Soprano 2" snm="S 2"
V:3 treble-8 nm="Tenor" snm="T"
V:1
 c4 c2 c2 | d4 c2 AB | c2 A2 B4 | A4 A4 | G2 F2 G4 | F2 AB c3 B/A/ | G2 A4 G2 | A2 cB A2 F2- | %8
w: Vo- la fra|gli'al- tri'un che le|piu- me'ha spar-|te, di|co- lor va-|ri che le piu _ _|_ me'ha spar-|te, che le piu- me'ha|
 F2 E2 F4 | z2 C2 C2 C2 | D4 C2 F2 | E2 F4 G2 | A3 G/F/ E2 F2- | F2 E2 F2 c2- | c2 c2 c4 | %15
w: _ spar- te,|vo- la fra|gli'al- tri'un che|le piu- me'ha|spar- * * * *|* * te, di|_ co- lor|
 B2 A2 G2 c2 | B6 A2 | G4 A4 | z2 c2 d2 d2 | c2 A2 c2 BA | G6 A2 | B4 G4 | c2 B2 A2 A2 | %23
w: va- ri'et ha pur-|pu- reo'il|ro- stro,|e lin- gua|snod' in gu- i- sa|lar- ga'e|par te,|la vo- ce si|
 G2 E2 F2 G2 | AGAB c2 A2 | =B2 c4 B2 | c8 | G4 G2 G2 | F6 F2 | E2 F2 G2 A2 | B6 AG | ^F2 G2 A4 | %32
w: ch'as- sem- bra il|ser- * * * * mon|no- * *|stro,|quest' i- vi'a|l'hor con-|ti no- vo, con|ar- * *||
 A2 d2 d2 d2 | c8 | z8 | z2 d2 d2 d2 | c2 A2 G3 G | G2 F2 E4 | D4 z2 D2- | DD D2 _E4 | D2 G4 A2 | %41
w: te, tan- to'il par-|lar,||tan- to'il par-|lar che fu mi-|ra- bil mo-|stro, tac-|* que- ro gli'al-|tri'ad as- col-|
 =B2 c2 c4- | c4 c4 | z2 c4 c2 | B4 B2 A2 | G2 G2 A2 B2 | c6 BA | G2 F3 G AB | c2 A2 G4 | A8 |] %50
w: tar lo'in- ten-|* ti,|e fer-|ma- to'i su-|sur- r'in a- ria'i|ven- * *|||ti.|
V:2
 z8 | z4 F4 | F2 F2 G4 | F2 DE F2 D2 | E2 F4 E2 | F4 G2 c2 | c2 c2 d4 | c2 AB c2 A2 | B4 A2 FG | %9
w: |Vo-|la fra gli'al-|tri'un che le piu- me'ha|spar- * *|* te, vo-|la fra gl'al-|tri'un che le piu- me'ha|spar- te, che le|
 A3 G/F/ G2 A2 | B4 A2 c2 | c2 c2 d4 | c2 AB c2 A2 | B4 A4 | G2 A3 A G2 | F2 F2 E2 A2 | %16
w: piu- * * * me'ha|spar- te, vo-|la fra gl'al-|tri'un che le piu me'ha|spar- *|te, di co- lor|va- ri'et ha pur-|
 G2 F2 E2 F2- | F2 E2 F4- | F8 | z2 C2 F2 F2 | E2 C2 E2 F2 | G2 A2 B4 | A2 G2 F2 F2 | E4 z2 c2 | %24
w: pu- reo'il ro- *|* * stro,|_|e lin- gua|snod' in gu- i-|sa e par-|te, la vo- ce|si ch'as-|
 c2 F2 AGFE | D2 C2 D4 | C4 E4 | E2 E2 D2 d2 | d2 d2 c4- | c2 c2 B2 c2 | d6 cB | A2 G2 ^F4 | %32
w: sem- bra'il ser- * * *|* mon no-|stro, quest'|i- vi'a l'hor, quest'|i- vi'a l'hor|_ con- ti no-|vo, _ _|_ con ar-|
 ^F2 B2 B2 B2 | A2 A2 G3 A | B2 A2 G4 | A2 F2 F3 G | A2 F2 E3 D | E2 D4 ^C2 | D4 z2 =B,2- | %39
w: te, tan- to'il par-|lar che fu mi-|ra- bil mo-|stro, tan- to'il par-|lar che fu mi-|ra- bil mo-|stro tac-|
 B,=B, B,2 C4 | =B,4 D2 E2 | ^F2 G2 A4- | A4 A4 | z2 A4 G2 | G4 G2 F2 | E2 E2 F2 G2 | A6 GF | %47
w: * que- ro gli'al-|tri'ad as- col-|tar lo'in- ten-|* ti,|e fer-|ma- to'i su-|sur- r'in a- ria'i|ven- * *|
 EDCB, A,B,CD | E2 F4 E2 | F8 |] %50
w: ||ti.|
V:3
 z8 | z8 | z8 | z8 | c4 c2 c2 | d4 c2 AB | c2 A2 B4 | A2 F2 F2 F2 | G4 F2 DE | F3 E/D/ E2 F2 | %10
w: ||||Vo- la fra|gli'al- tri'un che le|piu me'ha spar-|te, vo- la fra|gli'al- tri'un che le|piu _ _ _ me'ha|
 B,CDE F2 FG | A2 A2 B4 | A2 FG A2 F2 | G4 FGAB | c2 f3 f e2 | d2 f2 c2 A2 | B2 B2 c4- | c4 F4 | %18
w: spar- * * * * te, di|co- lor va-|ri che le piu me|la spar- * * *|te, di co- lor|va- ri'et ha pur-|pu- reo'il ro-|* stro,|
 F4 B2 B2 | A2 F2 A2 B2 | c6 BA | G8 | F2 G2 A3 B | c2 C2 D2 E2 | F4 F4 | G8 | C4 c4 | c2 c2 B4- | %28
w: e lin- gua|snod' in gui- sa|lar- ge _|par-|te, la vo- ce|si ch'as- sem- brail|ser- mon|no-|stro, quest'|i- vi'a l'hor|
 B2 B2 A2 B2 | c2 A2 G4 | G2 A2 B2 c2 | d2 _e2 d4 | d2 B2 B2 B2 | F2 f2 e3 f | d2 f4 e2 | %35
w: _ con- ti- no-|vo con ar-|te, con- ti- no-|vo con ar-|te, tan- to par-|lar che fu mi-|ra- bil mo-|
 f2 B2 B2 B2 | F2 F2 c3 =B | c2 d2 A4 | D4 z2 G2- | GG G2 C4 | G4 =B2 c2 | d2 e2 f4- | f4 f4 | %43
w: stro, tan- to'il par-|lar che fu mi-|ra- bil mo-|stro, tac-|* que- ro gli'al-|tri'ad as- col-|tar lo'in- ten-|* ti,|
 z2 f4 c2 |"^b""^b" e4 e2 f2 | c2 B2 F4- | F2 G2 A2 B2 | cBAG F3 E/D/ | C8 | F8 |] %50
w: e fer-|ma- to'i su-|sur- r'in a-|* ria'i ven- *|||ti.|

